X:166
T:Antic Dance. (p)1665.PLFD.166
M:4/4
L:1/4
Q:1/2=100
S:Playford, Dancing Master,2nd Supp. to 3rd Ed.,1665
O:England
H:166
Z:Chris Partington
K:G
g|gdde|dB2(c/d/)|(e/d/)(c/B/) (c/B/)(A/G/)|FD2B|
GB2g|ce2a|Af^c>d|d3:|
|:a|af2d|dg2(g/f/)|e(d/c/)B(A/B/)|
^GE2B|ce2(c/B/)|Aaa(f/e/)|dgg>f|g3:|
